!!!ONB: MCCC : IWM0417_03 : Extracted Monophonic Melody
!!!COM: Mozart, Wolfgang Amadeus
!!!OPR: Piano Sonata No.17
!!!OMV: 3
!!!SCT: K.570
!!!ODT: 1789///
**kern
*thru
*staff1
*>A
*clefG2
*k[b-e-]
*B-:
*M4/4
*met(c)
*MM120
8b-
=1
8dd
8r
8ee-
8r
4ee
8ff
8dd
=2
8cc
8b
8cc
8dd
4ff
8ee-
8a
=3
8b-
4b-
8b
8cc
4cc
8cc#
=4
8dd
8cc
8dd
8ee-
4dd
8cc
16b-
16cc
=5
8dd
8r
8ee-
8r
4ee
8ff
8dd
=6
8cc
8b
8cc
8dd
4ff
8ee-
8a
=7
8b-
8bb-
8bb-
8bb-
8cc
8gg
8gg
8gg
=8
8b-
8b-
16cc
16b-
16cc
16dd
4b-
8r
16b-
16dd
=9
8ff
8r
8ee
8r
8ccc
4ee-
[8dd
=10
8dd]
8b
8cc
8gg
8.b-
32cc
32b-
8a
16a
16cc
=11
8ff
8r
8ee
8r
8ccc
4ee-
8dd
=12
8r
8bb-
8gg
8ee
8ff
8aa
8ccc
8ccc
=13
8r
16ccc
16bb-
16aa
16gg
16ff
16ee
16ff
16cc
16ff
16aa
8ccc
8ccc
=14
16r
16aa
16ccc
16bb-
16aa
16gg
16ff
16ee
16ff
16ff#
16aa
16gg
16ff
16ee-
16dd
16cc#
=15
8dd
8r
8ee-
8r
4ee
8ff
8dd
=16
8cc
8b
8cc
8dd
4ff
8ee-
8a
=17
8b-
4b-
8b
8cc
4cc
8cc#
=18
8dd
8cc
8dd
8ee-
4dd
8cc
16b-
16cc
=19
8dd
8r
8ee-
8r
4ee
8ff
8dd
=20
8cc
8b
8cc
8dd
4ff
8ee-
8a
=21
8b-
8bb-
8bb-
8bb-
8cc
8gg
8gg
8gg
=22
8b-
8b-
16cc
16b-
16cc
16dd
4b-
8r
*>B
8f
=23
8dd
4dd
8b-
8ee-
4ee-
8cc
=24
8g
8b-
8a
8cc
16b-
16a
16b-
16cc
8b-
8b-
=25
8ff
4ff
8dd
8gg
4gg
8ee-
=26
8b-
8dd
8cc
8ee-
16dd
16cc
16dd
16ee-
8dd
8dd
=27
8ddd
8ddd
8bb-
8gg
4ff#
8gg
8ddd
=28
16bb
16ccc
16ddd
16ccc
16bb-
16aa
16gg
16ff
4ee
8ff
8ccc
=29
16fff
16eee
16ddd
16ccc
16bb-
16aa
16gg
16ff
16ddd
16ccc
16bb-
16aa
16gg
16ff
16ee
16dd
=30
16cc
16ff
16aa
16ccc
16ccc
16bb-
16aa
16gg
4gg
8ff
*>B
8f
=31
8dd
4dd
8b-
8ee-
4ee-
8cc
=32
8g
8b-
8a
8cc
16b-
16a
16b-
16cc
8b-
8b-
=33
8ff
4ff
8dd
8gg
4gg
8ee-
=34
8b-
8dd
8cc
8ee-
16dd
16cc
16dd
16ee-
8dd
8dd
=35
8ddd
8ddd
8bb-
8gg
4ff#
8gg
8ddd
=36
16bb
16ccc
16ddd
16ccc
16bb-
16aa
16gg
16ff
4ee
8ff
8ccc
=37
16fff
16eee
16ddd
16ccc
16bb-
16aa
16gg
16ff
16ddd
16ccc
16bb-
16aa
16gg
16ff
16ee
16dd
=38
16cc
16ff
16aa
16ccc
16ccc
16bb-
16aa
16gg
4gg
8ff
*>C
8f
=39
8ff
4ff
8aa-
8dd
4dd
8ff
=40
8ee-
4ee-
8gg
8cc
4cc
8ee-
=41
16ee-
16dd-
16cc
16b-
16a
16b-
16cc
16b-
16ee-
16dd-
16cc
16b-
16a
16b-
16cc
16b-
=42
8bb-
4bb-
8ee
4gg
8ff
8f
=43
8dd
4dd
8b-
8ee-
4ee-
8cc
=44
8g
8b-
8a
8cc
16b-
16a
16b-
16cc
8b-
8b-
=45
8ff
4ff
8dd
8gg
4gg
8ee-
=46
8b-
8dd
8cc
8ee-
16dd
16cc
16dd
16ee-
8dd
8b-
=47
8gg
8gg
8ee-
8cc
4b
8cc
8gg
=48
16ee
16ff
16gg
16ff
16ee-
16dd
16cc
16b-
4a
8b-
8ff
=49
16bb-
16aa
16gg
16ff
16ee-
16dd
16cc
16b-
16gg
16ff
16ee-
16dd
16cc
16b-
16a
16g
=50
16f
16b-
16dd
16ff
16ff
16ee-
16dd
16cc
4cc
8b-
*>C
8f
=51
8ff
4ff
8aa-
8dd
4dd
8ff
=52
8ee-
4ee-
8gg
8cc
4cc
8ee-
=53
16ee-
16dd-
16cc
16b-
16a
16b-
16cc
16b-
16ee-
16dd-
16cc
16b-
16a
16b-
16cc
16b-
=54
8bb-
4bb-
8ee
4gg
8ff
8f
=55
8dd
4dd
8b-
8ee-
4ee-
8cc
=56
8g
8b-
8a
8cc
16b-
16a
16b-
16cc
8b-
8b-
=57
8ff
4ff
8dd
8gg
4gg
8ee-
=58
8b-
8dd
8cc
8ee-
16dd
16cc
16dd
16ee-
8dd
8b-
=59
8gg
8gg
8ee-
8cc
4b
8cc
8gg
=60
16ee
16ff
16gg
16ff
16ee-
16dd
16cc
16b-
4a
8b-
8ff
=61
16bb-
16aa
16gg
16ff
16ee-
16dd
16cc
16b-
16gg
16ff
16ee-
16dd
16cc
16b-
16a
16g
=62
16f
16b-
16dd
16ff
16ff
16ee-
16dd
16cc
4cc
8b-
*>D
16b-
16cc
=63
4dd
8r
16dd
16ee-
4ff
8r
16ff
16gg
=64
8aa-
8ff
8dd
8b-
8a
8b-
8a-
8f
=65
*>E
8e-
8e-
8e-
8e-
8cc
8cc
8cc
8cc
=66
8f
8f
8b-
8b-
8a-
8g
8f
8e-
=67
8gg
8gg
8ff#
8ff#
8ee
8ee-
8dd
8dd-
=68
8cc
8cc
8ff
8ff
4b-
4r
=69
*>E
8e-
8e-
8e-
8e-
8cc
8cc
8cc
8cc
=70
8f
8f
8b-
8b-
8a-
8g
8f
8e-
=71
8gg
8gg
8ff#
8ff#
8ee
8ee-
8dd
8dd-
=72
8cc
8cc
8ff
8ff
4b-
4r
=73
*>F
8r
8b-
8dd-
8ee
8gg
8dd-
8cc
8b-
=74
8a
8a-
8dd
8ee-
8ff
8cc-
8b-
8a-
=75
8g
8g-
8f
8b-
8e-
8a
8d
8g-
=76
8f
8g-
8f
8g-
8f
8g
8a-
8f
=77
8e-
8e-
8e-
8e-
8cc
8cc
8cc
8cc
=78
8f
8f
8b-
8b-
8a-
8g
8f
8e-
=79
8cc
8ccc
8bb
8bb-
8aa
8aa-
8gg
8gg-
=80
8ff
8ff
8bb-
8bb-
4ee-
4r
=81
*>F
8r
8b-
8dd-
8ee
8gg
8dd-
8cc
8b-
=82
8a
8a-
8dd
8ee-
8ff
8cc-
8b-
8a-
=83
8g
8g-
8f
8b-
8e-
8a
8d
8g-
=84
8f
8g-
8f
8g-
8f
8g
8a-
8f
=85
8e-
8e-
8e-
8e-
8cc
8cc
8cc
8cc
=86
8f
8f
8b-
8b-
8a-
8g
8f
8e-
=87
8cc
8ccc
8bb
8bb-
8aa
8aa-
8gg
8gg-
=88
8ff
8ff
8bb-
8bb-
4ee-
4r
=89
*>G
4r
8r
8b
8cc
8dd
8ee-
8ee
=90
8ff
8fff
8eee
8eee-
8ddd
8ccc
8bb-
8aa-
=91
8gg
8eee-
8ff
8ddd
8ee-
8ccc
8dd
8bb-
=92
8r
8bb-
8gg
8ee
8ff
8aa
8ccc
8ccc
=93
8r
16ccc
16bb-
16aa
16gg
16ff
16ee
16ff
16cc
16ff
16aa
8ccc
8ccc
=94
16r
16aa
16ccc
16bb-
16aa
16gg
16ff
16ee
16ff
16ff#
16aa
16gg
16ff
16ee-
16dd
16cc#
=95
8dd
8r
8ee-
8r
4ee
8ff
8dd
=96
8cc
8b
8cc
8dd
4ff
8ee-
8a
=97
8b-
4b-
8b
8cc
4cc
8cc#
=98
8dd
8cc
8dd
8ee-
4dd
8cc
16b-
16cc
=99
8dd
8r
8ee-
8r
4ee
8ff
8dd
=100
8cc
8b
8cc
8dd
4ff
8ee-
8a
=101
8b-
8bb-
8bb-
8bb-
8cc
8gg
8gg
8gg
=102
8b-
8b-
16cc
16b-
16cc
16dd
4b-
8r
8b-
=103
8bb-
4bb-
8gg
8ff
4ff
8dd
=104
8cc
4cc
8ee-
8cc#
8dd
8dd
8b-
=105
8bb-
4bb-
8gg
8ff
4ff
8dd
=106
8cc
4cc
8ee-
8cc#
8dd
8dd
8b-
=107
8bb-
8bb-
8bb-
8bb-
8ee
8ee
8ee
8ee
=108
8ccc
8ccc
8ccc
8ccc
8ee-
8ee-
8ee-
8ee-
=109
8dd
8bb-
8aa
8aa-
8gg
8gg-
8ff
8ee
=110
8ff
8dd
8cc
8ff
4ee-
8dd
8r
=111
8r
8ff#
8gg
8bb-
8.ddd-
32eee-
32ddd-
8ccc
8bb-
=112
8aa
8a
8cc
8ee-
8.gg-
32aa-
32gg-
8ff
8ee-
=113
8dd
8b-
8cc
8dd
8ee-
8ee
8ff
8ff#
=114
4gg
4bb-
8r
8gg
8aa
8bb-
=115
16bb-
16ccc
16ddd
16eee-
16fff
16eee-
16ddd
16ccc
16bb-
16aa
16gg
16ff
16ee-
16dd
16cc
16b-
=116
1cc
=117
4b-
4r
8r
8ff
8ee-
8dd
=118
4gg
4r
8r
8gg
8aa
8bb-
=119
4ff
4r
8r
8dd
8ee-
8ff
=120
4ee-
4r
8r
8f
8g
8a
=121
8b-
8r
8dd
8r
8b-
8r
8r
==
*-
